X:1
T:Title
T:Hole in the Wall
T:Playford 1696
T:D/G Voice - use 'g' drones
C:Composer
L:1/8
M:6/8
K:G
V:1 treble nm="Piano" snm="Pno."
V:1
|:"_Keys:" B>cB/c/ dAd | G>AG/A/ BFB | E>FE/F/ GDB | G2 F G3 :|"_Keys:" g>fe/f/ gfe | %5
w: 5 6 5 6 7 4 7|3 4 3 4 5 2 5|1 2 1 2 3 0 5|3 2 3|10 9 8 9 10 9 8|
 ^d>ed/e/ fBf | g>fe/f/ gfe | e2 ^d e3 |"_Keys:" F>GF/G/ GF/G/A | G>AG/A/ BA/B/c | B>cB/c/ dDd | %11
w: 7.5 8 7 8 9 5 9|10 9 8 9 10 9 8|8 7.5 8|2 3 2 3 3 2 3 4|3 4 3 4 5 4 5 6|5 6 5 6 7 0 7|
"_Keys:" B2 A/B/ G3 :| %12
w: 5 4 5 3|

